src/dsmComponents/Icons/location-pin-area-16px.svg

<?xml version="1.0" encoding="UTF-8"?>
<svg width="16px" height="16px" viewBox="0 0 16 16" version="1.1" xmlns="http://www.w3.org/2000/svg" xmlns:xlink="http://www.w3.org/1999/xlink">
    <!-- Generator: Sketch 59.1 (86144) - https://sketch.com -->
    <title>location-pin-area-16px</title>
    <desc>Created with Sketch.</desc>
    <defs>
        <path d="M8,0 C5.378,0 2.66666667,1.99466667 2.66666667,5.33333333 C2.66666667,8.4 7.02933333,12.8846667 7.52666667,13.3866667 C7.652,13.5126667 7.822,13.5833333 8,13.5833333 C8.178,13.5833333 8.348,13.5126667 8.47333333,13.3866667 C8.97066667,12.8846667 13.3333333,8.4 13.3333333,5.33333333 C13.3333333,1.99466667 10.622,0 8,0 Z M12.2346667,11.026 C14.266,11.3966667 16,12.098 16,13.3333333 C16,15.4386667 10.9713333,16 8,16 L7.79894097,15.9991576 C4.80765366,15.9742894 0,15.3918815 0,13.3333333 C0,12.098 1.734,11.3966667 3.76466667,11.0253333 C4.07266667,11.4486667 4.384,11.85 4.68866667,12.222 C2.652,12.516 1.45666667,13.0346667 1.32933333,13.3606667 C1.51533333,13.7793333 3.97133333,14.666 8,14.666 C11.95,14.666 14.388,13.814 14.6573333,13.3326667 C14.474,13.006 13.2886667,12.5086667 11.31,12.2226667 C11.6153333,11.8506667 11.9266667,11.4493333 12.2346667,11.026 Z M8,4 C8.73666667,4 9.33333333,4.59666667 9.33333333,5.33333333 C9.33333333,6.07 8.73666667,6.66666667 8,6.66666667 C7.26333333,6.66666667 6.66666667,6.07 6.66666667,5.33333333 C6.66666667,4.59666667 7.26333333,4 8,4 Z" id="path-1"></path>
    </defs>
    <g id="Final" stroke="none" stroke-width="1" fill="none" fill-rule="evenodd">
        <g id="All-Nucleo-Icons" transform="translate(-319.000000, -4252.000000)">
            <g id="Solo/Nucleo/16px/location-pin-area" transform="translate(315.000000, 4248.000000)">
                <g id="position-pin" transform="translate(4.000000, 4.000000)">
                    <g id="Colour/Default-Colour">
                        <mask id="mask-2" fill="white">
                            <use xlink:href="#path-1"></use>
                        </mask>
                        <use id="Mask" fill="#000000" fill-rule="nonzero" xlink:href="#path-1"></use>
                        <g id="colour/neutral/chia" mask="url(#mask-2)" fill="#737373">
                            <g transform="translate(-24.000000, -24.000000)" id="Colour">
                                <rect x="0" y="0" width="64" height="64"></rect>
                            </g>
                        </g>
                    </g>
                </g>
            </g>
        </g>
    </g>
</svg>

<svg width="16" height="16" xmlns="http://www.w3.org/2000/svg" xmlns:xlink="http://www.w3.org/1999/xlink"><defs><path d="M8 0C5.378 0 2.667 1.995 2.667 5.333c0 3.067 4.362 7.552 4.86 8.054a.667.667 0 00.946 0c.498-.502 4.86-4.987 4.86-8.054C13.333 1.995 10.622 0 8 0zm4.235 11.026c2.031.37 3.765 1.072 3.765 2.307C16 15.44 10.971 16 8 16h-.201C4.808 15.973 0 15.391 0 13.332c0-1.235 1.734-1.936 3.765-2.308.308.424.619.825.924 1.197-2.037.294-3.232.813-3.36 1.139.186.418 2.642 1.305 6.671 1.305 3.95 0 6.388-.852 6.657-1.333-.183-.327-1.368-.824-3.347-1.11.305-.372.617-.774.925-1.197zM8 4a1.333 1.333 0 110 2.666A1.333 1.333 0 018 4z" id="location-pin-area-16px_svg__a"/></defs><use fill="#737373" xlink:href="#location-pin-area-16px_svg__a" fill-rule="evenodd"/></svg>
